X: 4446
T: Bonnie Isle O' Whalsey, The
R: reel
M: 4/4
K: Amajor
|:edcA B2 ed|cAAc BE E2|edcA B2 ed|cABG A4:|
cde=g dfed|cAdc B=G G2|cde=g fded|cABG A4|
cde=g fded|cAdc B=G G2|cdef =ga=ge|dBGB A4|

